boxicons/svg/solid/bxs-package.svg

<svg xmlns="http://www.w3.org/2000/svg" width="24" height="24" viewBox="0 0 24 24"><path d="M21.993 7.95a.96.96 0 0 0-.029-.214c-.007-.025-.021-.049-.03-.074-.021-.057-.04-.113-.07-.165-.016-.027-.038-.049-.057-.075-.032-.045-.063-.091-.102-.13-.023-.022-.053-.04-.078-.061-.039-.032-.075-.067-.12-.094-.004-.003-.009-.003-.014-.006l-.008-.006-8.979-4.99a1.002 1.002 0 0 0-.97-.001l-9.021 4.99c-.003.003-.006.007-.011.01l-.01.004c-.035.02-.061.049-.094.073-.036.027-.074.051-.106.082-.03.031-.053.067-.079.102-.027.035-.057.066-.079.104-.026.043-.04.092-.059.139-.014.033-.032.064-.041.1a.975.975 0 0 0-.029.21c-.001.017-.007.032-.007.05V16c0 .363.197.698.515.874l8.978 4.987.001.001.002.001.02.011c.043.024.09.037.135.054.032.013.063.03.097.039a1.013 1.013 0 0 0 .506 0c.033-.009.064-.026.097-.039.045-.017.092-.029.135-.054l.02-.011.002-.001.001-.001 8.978-4.987c.316-.176.513-.511.513-.874V7.998c0-.017-.006-.031-.007-.048zm-10.021 3.922L5.058 8.005 7.82 6.477l6.834 3.905-2.682 1.49zm.048-7.719L18.941 8l-2.244 1.247-6.83-3.903 2.153-1.191zM13 19.301l.002-5.679L16 11.944V15l2-1v-3.175l2-1.119v5.705l-7 3.89z"/></svg>

<svg xmlns="http://www.w3.org/2000/svg" width="24" height="24" viewBox="0 0 24 24"><path d="M21.993,7.95c-0.003-0.072-0.01-0.145-0.029-0.214c-0.007-0.025-0.021-0.049-0.03-0.074 c-0.021-0.057-0.04-0.113-0.07-0.165c-0.016-0.027-0.038-0.049-0.057-0.075c-0.032-0.045-0.063-0.091-0.102-0.13 c-0.023-0.022-0.053-0.04-0.078-0.061c-0.039-0.032-0.075-0.067-0.12-0.094c-0.004-0.003-0.009-0.003-0.014-0.006 c-0.003-0.001-0.005-0.004-0.008-0.006l-8.979-4.99c-0.301-0.168-0.667-0.167-0.97-0.001l-9.021,4.99 C2.512,7.127,2.509,7.131,2.504,7.134c-0.003,0.001-0.007,0.002-0.01,0.004C2.459,7.158,2.433,7.187,2.4,7.211 C2.364,7.238,2.326,7.262,2.294,7.293C2.264,7.324,2.241,7.36,2.215,7.395C2.188,7.43,2.158,7.461,2.136,7.499 C2.11,7.542,2.096,7.591,2.077,7.638c-0.014,0.033-0.032,0.064-0.041,0.1c-0.019,0.067-0.025,0.139-0.029,0.21 C2.006,7.965,2,7.98,2,7.998v0.001V8v8c0,0.363,0.197,0.698,0.515,0.874l8.978,4.987l0.001,0.001c0.001,0,0.001,0,0.002,0.001 l0.02,0.011c0.043,0.024,0.09,0.037,0.135,0.054c0.032,0.013,0.063,0.03,0.097,0.039C11.829,21.988,11.915,22,12,22 s0.171-0.012,0.254-0.033c0.033-0.009,0.064-0.026,0.097-0.039c0.045-0.017,0.092-0.029,0.135-0.054l0.02-0.011 c0.001-0.001,0.001-0.001,0.002-0.001l0.001-0.001l8.978-4.987C21.803,16.698,22,16.363,22,16V8V7.999V7.998 C22,7.981,21.994,7.967,21.993,7.95z M11.972,11.872L5.058,8.005l2.762-1.528l6.834,3.905L11.972,11.872z M12.02,4.153L18.941,8 l-2.244,1.247l-6.83-3.903L12.02,4.153z M13,19.301l0.002-5.679L16,11.944V15l2-1v-3.175l2-1.119v5.705L13,19.301z"/></svg>
